public/img/phone.svg

<svg width="18" height="18" viewBox="0 0 18 18" fill="none" xmlns="http://www.w3.org/2000/svg">
<path d="M14.0034 16.8843C5.37967 14.045 1.8538 7.31841 1.07067 3.96631C1.02066 3.75223 1.05113 3.52704 1.15963 3.33584C2.10345 1.67265 3.47802 1 4.01176 1C4.46353 1 5.83137 3.13333 6.45882 4.2C7.00564 5.02023 6.35282 6.31617 5.85227 7.01757C5.7594 7.14771 5.68428 7.29788 5.73528 7.4494C6.16399 8.72305 10.4246 12.4695 10.6 12.2941C10.726 12.1681 11.7391 11.682 12.471 11.3428C12.7185 11.2281 13.0032 11.2199 13.2521 11.3313C14.873 12.0564 16.0288 13.0584 16.6403 13.7341C16.8777 13.9964 16.9155 14.3776 16.7396 14.6845C16.1133 15.777 15.262 16.4801 14.6964 16.8232C14.4889 16.9491 14.2339 16.9602 14.0034 16.8843Z" stroke="white"/>
</svg>

<svg width="18" height="18" fill="none" xmlns="http://www.w3.org/2000/svg"><path d="M14.003 16.884C5.38 14.045 1.853 7.318 1.071 3.966a.874.874 0 01.089-.63C2.103 1.673 3.478 1 4.012 1c.452 0 1.82 2.133 2.447 3.2.547.82-.106 2.116-.607 2.818-.093.13-.168.28-.117.431.429 1.274 4.69 5.02 4.865 4.845.126-.126 1.14-.612 1.871-.951a.942.942 0 01.781-.012c1.621.725 2.777 1.727 3.388 2.403a.81.81 0 01.1.95c-.627 1.093-1.478 1.796-2.044 2.14a.833.833 0 01-.693.06z" stroke="#fff"/></svg>
